X: 25367
T: Maple Sugar
R: reel
M: 4/4
K: Amajor
Acd|:e2e>f edcB|c2c>d cAdc|B2B>c ddcB|c>A cd eAcd|
e2e>f edcB|Bc c>d cAdc|cB B>c ddcB|1 BAA>B AAcd:|2 BAA>B A2CD||
|:E2E>F ECEA|c2c>B AEFE|B2B>c BGFG|A>A GF ECDF|
E2E>F ECEA|c2c>B AEFE|B2B>c dBcB|1 A2A>B A2CD:|2 A2A>B AAcd||
|:e2e>f edcB|c2c>d cAdc|B2B>c ddcB|cA c>d cAcd|
e2e>f edcB|Bc c>d cAdc|cB B>c ddcB|1 BAA>B AAcd:|2 BAA>B A2^GA||
|:B2B>c BGBe|^g2g>f eBcB|f2f>^g f^dcd|ee^dc B^GAc|
B2B>c B^GBe|^g2g>f eBcB|f2f>^g aagf|1 e2e>f e2 ^GA:|2 e2e>f edcd||

